( Made using CamBam - http://www.cambam.co.uk )
( LConnection 4/11/2023 10:10:26 AM )
( Post processor: Default )
( T0 : 0.0 )
G21 G90 G64 G40
G0 Z3.0
( T0 : 0.0 )
T0 M6
( Profile1 )
G17
M3 S1000
G0 X6.35 Y50.8
G0 Z1.0
G1 F200.0 Z-0.3
G1 F800.0 X-6.35
G1 Y-6.35
G1 X50.8
G1 Y6.35
G1 X6.35
G1 Y50.8
G1 F200.0 Z-0.6
G1 F800.0 X-6.35
G1 Y-6.35
G1 X50.8
G1 Y6.35
G1 X6.35
G1 Y50.8
G1 F200.0 Z-0.9
G1 F800.0 X-6.35
G1 Y-6.35
G1 X50.8
G1 Y6.35
G1 X6.35
G1 Y50.8
G1 F200.0 Z-1.2
G1 F800.0 X-6.35
G1 Y-6.35
G1 X50.8
G1 Y6.35
G1 X6.35
G1 Y50.8
G1 F200.0 Z-1.5
G1 F800.0 X-6.35
G1 Y-6.35
G1 X50.8
G1 Y6.35
G1 X6.35
G1 Y50.8
G1 F200.0 Z-1.8
G1 F800.0 X-6.35
G1 Y-6.35
G1 X50.8
G1 Y6.35
G1 X6.35
G1 Y50.8
G1 F200.0 Z-2.1
G1 F800.0 X-6.35
G1 Y-6.35
G1 X50.8
G1 Y6.35
G1 X6.35
G1 Y50.8
G1 F200.0 Z-2.4
G1 F800.0 X-6.35
G1 Y-6.35
G1 X50.8
G1 Y6.35
G1 X6.35
G1 Y50.8
G1 F200.0 Z-2.7
G1 F800.0 X-6.35
G1 Y-6.35
G1 X50.8
G1 Y6.35
G1 X6.35
G1 Y50.8
G1 F200.0 Z-3.0
G1 F800.0 X-6.35
G1 Y-6.35
G1 X50.8
G1 Y6.35
G1 X6.35
G1 Y50.8
G1 F200.0 Z-3.3
G1 F800.0 X-6.35
G1 Y-6.35
G1 X50.8
G1 Y6.35
G1 X6.35
G1 Y50.8
G1 F200.0 Z-3.6
G1 F800.0 X-6.35
G1 Y-6.35
G1 X50.8
G1 Y6.35
G1 X6.35
G1 Y50.8
G1 F200.0 Z-3.9
G1 F800.0 X-6.35
G1 Y-6.35
G1 X50.8
G1 Y6.35
G1 X6.35
G1 Y50.8
G1 F200.0 Z-4.2
G1 F800.0 X-6.35
G1 Y-6.35
G1 X50.8
G1 Y6.35
G1 X6.35
G1 Y50.8
G1 F200.0 Z-4.5
G1 F800.0 X-6.35
G1 Y-6.35
G1 X50.8
G1 Y6.35
G1 X6.35
G1 Y50.8
G1 F200.0 Z-4.8
G1 F800.0 X-6.35
G1 Y-6.35
G1 X50.8
G1 Y6.35
G1 X6.35
G1 Y50.8
G1 F200.0 Z-5.0
G1 F800.0 X-6.35
G1 Y-6.35
G1 X50.8
G1 Y6.35
G1 X6.35
G1 Y50.8
( Drill1 )
S1000
G0 Z3.0
G0 X0.0 Y44.45
G0 Z3.0
G0 X2.5 Y44.45
G0 Z1.0
G1 F200.0 Z0.0
G2 F800.0 X-1.25 Y42.2849 Z-0.1 I-2.5 J0.0
G2 Y46.6151 Z-0.2 I1.25 J2.1651
G2 X2.5 Y44.45 Z-0.3 I1.25 J-2.1651
G2 X-1.25 Y42.2849 Z-0.4 I-2.5 J0.0
G2 Y46.6151 Z-0.5 I1.25 J2.1651
G2 X2.5 Y44.45 Z-0.6 I1.25 J-2.1651
G2 X-1.25 Y42.2849 Z-0.7 I-2.5 J0.0
G2 Y46.6151 Z-0.8 I1.25 J2.1651
G2 X2.5 Y44.45 Z-0.9 I1.25 J-2.1651
G2 X-1.25 Y42.2849 Z-1.0 I-2.5 J0.0
G2 Y46.6151 Z-1.1 I1.25 J2.1651
G2 X2.5 Y44.45 Z-1.2 I1.25 J-2.1651
G2 X-1.25 Y42.2849 Z-1.3 I-2.5 J0.0
G2 Y46.6151 Z-1.4 I1.25 J2.1651
G2 X2.5 Y44.45 Z-1.5 I1.25 J-2.1651
G2 X-1.25 Y42.2849 Z-1.6 I-2.5 J0.0
G2 Y46.6151 Z-1.7 I1.25 J2.1651
G2 X2.5 Y44.45 Z-1.8 I1.25 J-2.1651
G2 X-1.25 Y42.2849 Z-1.9 I-2.5 J0.0
G2 Y46.6151 Z-2.0 I1.25 J2.1651
G2 X2.5 Y44.45 Z-2.1 I1.25 J-2.1651
G2 X-1.25 Y42.2849 Z-2.2 I-2.5 J0.0
G2 Y46.6151 Z-2.3 I1.25 J2.1651
G2 X2.5 Y44.45 Z-2.4 I1.25 J-2.1651
G2 X-1.25 Y42.2849 Z-2.5 I-2.5 J0.0
G2 Y46.6151 Z-2.6 I1.25 J2.1651
G2 X2.5 Y44.45 Z-2.7 I1.25 J-2.1651
G2 X-1.25 Y42.2849 Z-2.8 I-2.5 J0.0
G2 Y46.6151 Z-2.9 I1.25 J2.1651
G2 X2.5 Y44.45 Z-3.0 I1.25 J-2.1651
G2 X-1.25 Y42.2849 Z-3.1 I-2.5 J0.0
G2 Y46.6151 Z-3.2 I1.25 J2.1651
G2 X2.5 Y44.45 Z-3.3 I1.25 J-2.1651
G2 X-1.25 Y42.2849 Z-3.4 I-2.5 J0.0
G2 Y46.6151 Z-3.5 I1.25 J2.1651
G2 X2.5 Y44.45 Z-3.6 I1.25 J-2.1651
G2 X-1.25 Y42.2849 Z-3.7 I-2.5 J0.0
G2 Y46.6151 Z-3.8 I1.25 J2.1651
G2 X2.5 Y44.45 Z-3.9 I1.25 J-2.1651
G2 X-1.25 Y42.2849 Z-4.0 I-2.5 J0.0
G2 Y46.6151 Z-4.1 I1.25 J2.1651
G2 X2.5 Y44.45 Z-4.2 I1.25 J-2.1651
G2 X-1.25 Y42.2849 Z-4.3 I-2.5 J0.0
G2 Y46.6151 Z-4.4 I1.25 J2.1651
G2 X2.5 Y44.45 Z-4.5 I1.25 J-2.1651
G2 X-1.25 Y42.2849 Z-4.6 I-2.5 J0.0
G2 Y46.6151 Z-4.7 I1.25 J2.1651
G2 X2.5 Y44.45 Z-4.8 I1.25 J-2.1651
G2 X-1.25 Y42.2849 Z-4.9 I-2.5 J0.0
G2 Y46.6151 Z-5.0 I1.25 J2.1651
G2 X2.5 Y44.45 Z-5.1 I1.25 J-2.1651
G2 X-1.25 Y42.2849 Z-5.2 I-2.5 J0.0
G2 Y46.6151 Z-5.3 I1.25 J2.1651
G2 X2.5 Y44.45 Z-5.4 I1.25 J-2.1651
G2 X-1.25 Y42.2849 Z-5.5 I-2.5 J0.0
G2 Y46.6151 Z-5.6 I1.25 J2.1651
G2 X2.5 Y44.45 Z-5.7 I1.25 J-2.1651
G2 X-1.25 Y42.2849 Z-5.8 I-2.5 J0.0
G2 Y46.6151 Z-5.9 I1.25 J2.1651
G2 X2.5 Y44.45 Z-6.0 I1.25 J-2.1651
G2 X-1.25 Y42.2849 Z-6.1 I-2.5 J0.0
G2 Y46.6151 Z-6.2 I1.25 J2.1651
G2 X2.5 Y44.45 Z-6.3 I1.25 J-2.1651
G2 X-1.25 Y42.2849 Z-6.4 I-2.5 J0.0
G2 Y46.6151 Z-6.5 I1.25 J2.1651
G2 X2.5 Y44.45 Z-6.6 I1.25 J-2.1651
G2 X-1.25 Y42.2849 Z-6.7 I-2.5 J0.0
G2 Y46.6151 Z-6.8 I1.25 J2.1651
G2 X2.5 Y44.45 Z-6.9 I1.25 J-2.1651
G2 X-1.25 Y42.2849 Z-7.0 I-2.5 J0.0
G2 Y46.6151 Z-7.1 I1.25 J2.1651
G2 X2.5 Y44.45 Z-7.2 I1.25 J-2.1651
G2 X-1.25 Y42.2849 Z-7.3 I-2.5 J0.0
G2 Y46.6151 Z-7.4 I1.25 J2.1651
G2 X2.5 Y44.45 Z-7.5 I1.25 J-2.1651
G2 X-1.25 Y42.2849 Z-7.6 I-2.5 J0.0
G2 Y46.6151 Z-7.7 I1.25 J2.1651
G2 X2.5 Y44.45 Z-7.8 I1.25 J-2.1651
G2 X-1.25 Y42.2849 Z-7.9 I-2.5 J0.0
G2 Y46.6151 Z-8.0 I1.25 J2.1651
G2 X2.5 Y44.45 Z-8.1 I1.25 J-2.1651
G2 X-1.25 Y42.2849 Z-8.2 I-2.5 J0.0
G2 Y46.6151 Z-8.3 I1.25 J2.1651
G2 X2.5 Y44.45 Z-8.4 I1.25 J-2.1651
G2 X-1.25 Y42.2849 Z-8.5 I-2.5 J0.0
G2 Y46.6151 Z-8.6 I1.25 J2.1651
G2 X2.5 Y44.45 Z-8.7 I1.25 J-2.1651
G2 X-1.25 Y42.2849 Z-8.8 I-2.5 J0.0
G2 Y46.6151 Z-8.9 I1.25 J2.1651
G2 X2.5 Y44.45 Z-9.0 I1.25 J-2.1651
G2 X-1.25 Y42.2849 Z-9.1 I-2.5 J0.0
G2 Y46.6151 Z-9.2 I1.25 J2.1651
G2 X2.5 Y44.45 Z-9.3 I1.25 J-2.1651
G2 X-1.25 Y42.2849 Z-9.4 I-2.5 J0.0
G2 Y46.6151 Z-9.5 I1.25 J2.1651
G2 X2.5 Y44.45 Z-9.6 I1.25 J-2.1651
G2 X-1.25 Y42.2849 Z-9.7 I-2.5 J0.0
G2 Y46.6151 Z-9.8 I1.25 J2.1651
G2 X2.5 Y44.45 Z-9.9 I1.25 J-2.1651
G2 X-1.25 Y42.2849 Z-10.0 I-2.5 J0.0
G2 Y46.6151 Z-10.1 I1.25 J2.1651
G2 X2.5 Y44.45 Z-10.2 I1.25 J-2.1651
G2 X-1.25 Y42.2849 Z-10.3 I-2.5 J0.0
G2 Y46.6151 Z-10.4 I1.25 J2.1651
G2 X2.5 Y44.45 Z-10.5 I1.25 J-2.1651
G2 X-1.25 Y42.2849 Z-10.6 I-2.5 J0.0
G2 Y46.6151 Z-10.7 I1.25 J2.1651
G2 X2.5 Y44.45 Z-10.8 I1.25 J-2.1651
G2 X-1.25 Y42.2849 Z-10.9 I-2.5 J0.0
G2 Y46.6151 Z-11.0 I1.25 J2.1651
G2 X2.5 Y44.45 Z-11.1 I1.25 J-2.1651
G2 X-1.25 Y42.2849 Z-11.2 I-2.5 J0.0
G2 Y46.6151 Z-11.3 I1.25 J2.1651
G2 X2.5 Y44.45 Z-11.4 I1.25 J-2.1651
G2 X-1.25 Y42.2849 Z-11.5 I-2.5 J0.0
G2 Y46.6151 Z-11.6 I1.25 J2.1651
G2 X2.5 Y44.45 Z-11.7 I1.25 J-2.1651
G2 X-1.25 Y42.2849 Z-11.8 I-2.5 J0.0
G2 Y46.6151 Z-11.9 I1.25 J2.1651
G2 X2.5 Y44.45 Z-12.0 I1.25 J-2.1651
G2 X-1.25 Y42.2849 Z-12.1 I-2.5 J0.0
G2 Y46.6151 Z-12.2 I1.25 J2.1651
G2 X2.5 Y44.45 Z-12.3 I1.25 J-2.1651
G2 X-1.25 Y42.2849 Z-12.4 I-2.5 J0.0
G2 Y46.6151 Z-12.5 I1.25 J2.1651
G2 X2.5 Y44.45 Z-12.6 I1.25 J-2.1651
G2 X-1.25 Y42.2849 Z-12.7 I-2.5 J0.0
G2 Y46.6151 Z-12.8 I1.25 J2.1651
G2 X2.5 Y44.45 Z-12.9 I1.25 J-2.1651
G2 X-1.25 Y42.2849 Z-13.0 I-2.5 J0.0
G2 Y46.6151 I1.25 J2.1651
G2 X2.5 Y44.45 I1.25 J-2.1651
G2 X-1.25 Y42.2849 I-2.5 J0.0
( Drill2 )
S1000
G0 Z3.0
G0 X44.45 Y0.0
G0 Z3.0
G0 X46.95 Y0.0
G0 Z1.0
G1 F200.0 Z0.0
G2 F800.0 X43.2 Y-2.1651 Z-0.1 I-2.5 J0.0
G2 Y2.1651 Z-0.2 I1.25 J2.1651
G2 X46.95 Y0.0 Z-0.3 I1.25 J-2.1651
G2 X43.2 Y-2.1651 Z-0.4 I-2.5 J0.0
G2 Y2.1651 Z-0.5 I1.25 J2.1651
G2 X46.95 Y0.0 Z-0.6 I1.25 J-2.1651
G2 X43.2 Y-2.1651 Z-0.7 I-2.5 J0.0
G2 Y2.1651 Z-0.8 I1.25 J2.1651
G2 X46.95 Y0.0 Z-0.9 I1.25 J-2.1651
G2 X43.2 Y-2.1651 Z-1.0 I-2.5 J0.0
G2 Y2.1651 Z-1.1 I1.25 J2.1651
G2 X46.95 Y0.0 Z-1.2 I1.25 J-2.1651
G2 X43.2 Y-2.1651 Z-1.3 I-2.5 J0.0
G2 Y2.1651 Z-1.4 I1.25 J2.1651
G2 X46.95 Y0.0 Z-1.5 I1.25 J-2.1651
G2 X43.2 Y-2.1651 Z-1.6 I-2.5 J0.0
G2 Y2.1651 Z-1.7 I1.25 J2.1651
G2 X46.95 Y0.0 Z-1.8 I1.25 J-2.1651
G2 X43.2 Y-2.1651 Z-1.9 I-2.5 J0.0
G2 Y2.1651 Z-2.0 I1.25 J2.1651
G2 X46.95 Y0.0 Z-2.1 I1.25 J-2.1651
G2 X43.2 Y-2.1651 Z-2.2 I-2.5 J0.0
G2 Y2.1651 Z-2.3 I1.25 J2.1651
G2 X46.95 Y0.0 Z-2.4 I1.25 J-2.1651
G2 X43.2 Y-2.1651 Z-2.5 I-2.5 J0.0
G2 Y2.1651 Z-2.6 I1.25 J2.1651
G2 X46.95 Y0.0 Z-2.7 I1.25 J-2.1651
G2 X43.2 Y-2.1651 Z-2.8 I-2.5 J0.0
G2 Y2.1651 Z-2.9 I1.25 J2.1651
G2 X46.95 Y0.0 Z-3.0 I1.25 J-2.1651
G2 X43.2 Y-2.1651 Z-3.1 I-2.5 J0.0
G2 Y2.1651 Z-3.2 I1.25 J2.1651
G2 X46.95 Y0.0 Z-3.3 I1.25 J-2.1651
G2 X43.2 Y-2.1651 Z-3.4 I-2.5 J0.0
G2 Y2.1651 Z-3.5 I1.25 J2.1651
G2 X46.95 Y0.0 Z-3.6 I1.25 J-2.1651
G2 X43.2 Y-2.1651 Z-3.7 I-2.5 J0.0
G2 Y2.1651 Z-3.8 I1.25 J2.1651
G2 X46.95 Y0.0 Z-3.9 I1.25 J-2.1651
G2 X43.2 Y-2.1651 Z-4.0 I-2.5 J0.0
G2 Y2.1651 Z-4.1 I1.25 J2.1651
G2 X46.95 Y0.0 Z-4.2 I1.25 J-2.1651
G2 X43.2 Y-2.1651 Z-4.3 I-2.5 J0.0
G2 Y2.1651 Z-4.4 I1.25 J2.1651
G2 X46.95 Y0.0 Z-4.5 I1.25 J-2.1651
G2 X43.2 Y-2.1651 Z-4.6 I-2.5 J0.0
G2 Y2.1651 Z-4.7 I1.25 J2.1651
G2 X46.95 Y0.0 Z-4.8 I1.25 J-2.1651
G2 X43.2 Y-2.1651 Z-4.9 I-2.5 J0.0
G2 Y2.1651 Z-5.0 I1.25 J2.1651
G2 X46.95 Y0.0 Z-5.1 I1.25 J-2.1651
G2 X43.2 Y-2.1651 Z-5.2 I-2.5 J0.0
G2 Y2.1651 Z-5.3 I1.25 J2.1651
G2 X46.95 Y0.0 Z-5.4 I1.25 J-2.1651
G2 X43.2 Y-2.1651 Z-5.5 I-2.5 J0.0
G2 Y2.1651 Z-5.6 I1.25 J2.1651
G2 X46.95 Y0.0 Z-5.7 I1.25 J-2.1651
G2 X43.2 Y-2.1651 Z-5.8 I-2.5 J0.0
G2 Y2.1651 Z-5.9 I1.25 J2.1651
G2 X46.95 Y0.0 Z-6.0 I1.25 J-2.1651
G2 X43.2 Y-2.1651 Z-6.1 I-2.5 J0.0
G2 Y2.1651 Z-6.2 I1.25 J2.1651
G2 X46.95 Y0.0 Z-6.3 I1.25 J-2.1651
G2 X43.2 Y-2.1651 Z-6.4 I-2.5 J0.0
G2 Y2.1651 Z-6.5 I1.25 J2.1651
G2 X46.95 Y0.0 Z-6.6 I1.25 J-2.1651
G2 X43.2 Y-2.1651 Z-6.7 I-2.5 J0.0
G2 Y2.1651 Z-6.8 I1.25 J2.1651
G2 X46.95 Y0.0 Z-6.9 I1.25 J-2.1651
G2 X43.2 Y-2.1651 Z-7.0 I-2.5 J0.0
G2 Y2.1651 Z-7.1 I1.25 J2.1651
G2 X46.95 Y0.0 Z-7.2 I1.25 J-2.1651
G2 X43.2 Y-2.1651 Z-7.3 I-2.5 J0.0
G2 Y2.1651 Z-7.4 I1.25 J2.1651
G2 X46.95 Y0.0 Z-7.5 I1.25 J-2.1651
G2 X43.2 Y-2.1651 Z-7.6 I-2.5 J0.0
G2 Y2.1651 Z-7.7 I1.25 J2.1651
G2 X46.95 Y0.0 Z-7.8 I1.25 J-2.1651
G2 X43.2 Y-2.1651 Z-7.9 I-2.5 J0.0
G2 Y2.1651 Z-8.0 I1.25 J2.1651
G2 X46.95 Y0.0 Z-8.1 I1.25 J-2.1651
G2 X43.2 Y-2.1651 Z-8.2 I-2.5 J0.0
G2 Y2.1651 Z-8.3 I1.25 J2.1651
G2 X46.95 Y0.0 Z-8.4 I1.25 J-2.1651
G2 X43.2 Y-2.1651 Z-8.5 I-2.5 J0.0
G2 Y2.1651 Z-8.6 I1.25 J2.1651
G2 X46.95 Y0.0 Z-8.7 I1.25 J-2.1651
G2 X43.2 Y-2.1651 Z-8.8 I-2.5 J0.0
G2 Y2.1651 Z-8.9 I1.25 J2.1651
G2 X46.95 Y0.0 Z-9.0 I1.25 J-2.1651
G2 X43.2 Y-2.1651 Z-9.1 I-2.5 J0.0
G2 Y2.1651 Z-9.2 I1.25 J2.1651
G2 X46.95 Y0.0 Z-9.3 I1.25 J-2.1651
G2 X43.2 Y-2.1651 Z-9.4 I-2.5 J0.0
G2 Y2.1651 Z-9.5 I1.25 J2.1651
G2 X46.95 Y0.0 Z-9.6 I1.25 J-2.1651
G2 X43.2 Y-2.1651 Z-9.7 I-2.5 J0.0
G2 Y2.1651 Z-9.8 I1.25 J2.1651
G2 X46.95 Y0.0 Z-9.9 I1.25 J-2.1651
G2 X43.2 Y-2.1651 Z-10.0 I-2.5 J0.0
G2 Y2.1651 Z-10.1 I1.25 J2.1651
G2 X46.95 Y0.0 Z-10.2 I1.25 J-2.1651
G2 X43.2 Y-2.1651 Z-10.3 I-2.5 J0.0
G2 Y2.1651 Z-10.4 I1.25 J2.1651
G2 X46.95 Y0.0 Z-10.5 I1.25 J-2.1651
G2 X43.2 Y-2.1651 Z-10.6 I-2.5 J0.0
G2 Y2.1651 Z-10.7 I1.25 J2.1651
G2 X46.95 Y0.0 Z-10.8 I1.25 J-2.1651
G2 X43.2 Y-2.1651 Z-10.9 I-2.5 J0.0
G2 Y2.1651 Z-11.0 I1.25 J2.1651
G2 X46.95 Y0.0 Z-11.1 I1.25 J-2.1651
G2 X43.2 Y-2.1651 Z-11.2 I-2.5 J0.0
G2 Y2.1651 Z-11.3 I1.25 J2.1651
G2 X46.95 Y0.0 Z-11.4 I1.25 J-2.1651
G2 X43.2 Y-2.1651 Z-11.5 I-2.5 J0.0
G2 Y2.1651 Z-11.6 I1.25 J2.1651
G2 X46.95 Y0.0 Z-11.7 I1.25 J-2.1651
G2 X43.2 Y-2.1651 Z-11.8 I-2.5 J0.0
G2 Y2.1651 Z-11.9 I1.25 J2.1651
G2 X46.95 Y0.0 Z-12.0 I1.25 J-2.1651
G2 X43.2 Y-2.1651 Z-12.1 I-2.5 J0.0
G2 Y2.1651 Z-12.2 I1.25 J2.1651
G2 X46.95 Y0.0 Z-12.3 I1.25 J-2.1651
G2 X43.2 Y-2.1651 Z-12.4 I-2.5 J0.0
G2 Y2.1651 Z-12.5 I1.25 J2.1651
G2 X46.95 Y0.0 Z-12.6 I1.25 J-2.1651
G2 X43.2 Y-2.1651 Z-12.7 I-2.5 J0.0
G2 Y2.1651 Z-12.8 I1.25 J2.1651
G2 X46.95 Y0.0 Z-12.9 I1.25 J-2.1651
G2 X43.2 Y-2.1651 Z-13.0 I-2.5 J0.0
G2 Y2.1651 I1.25 J2.1651
G2 X46.95 Y0.0 I1.25 J-2.1651
G2 X43.2 Y-2.1651 I-2.5 J0.0
G0 Z3.0
M5
M30
